packages/core/src/svgs/tokens/mono/USDV.svg

<svg width="24" height="24" viewBox="0 0 24 24" fill="none" xmlns="http://www.w3.org/2000/svg">
<path d="M12.0049 2.58823C12.0829 2.58823 12.1577 2.55724 12.2129 2.50208C12.268 2.44693 12.299 2.37211 12.299 2.29411C12.299 2.21611 12.268 2.14129 12.2129 2.08614C12.1577 2.03098 12.0829 2 12.0049 2C11.9268 2 11.852 2.03098 11.7968 2.08614C11.7418 2.14129 11.7108 2.21611 11.7108 2.29411C11.7108 2.37211 11.7418 2.44693 11.7968 2.50208C11.852 2.55724 11.9268 2.58823 12.0049 2.58823ZM2.00488 12C2.00516 9.55181 2.90356 7.18867 4.52981 5.3586C6.15606 3.52852 8.39717 2.35861 10.8284 2.07058V2.3647C8.47384 2.65023 6.30532 3.78805 4.73238 5.56324C3.15944 7.33846 2.29096 9.62813 2.29096 12C2.29096 14.3718 3.15944 16.6615 4.73238 18.4367C6.30532 20.212 8.47384 21.3497 10.8284 21.6353V21.9294C8.39717 21.6414 6.15606 20.4714 4.52981 18.6414C2.90356 16.8114 2.00516 14.4482 2.00488 12ZM21.7107 12C21.711 14.3706 20.8436 16.6593 19.2723 18.4343C17.701 20.2094 15.5344 21.3479 13.1813 21.6353V21.9294C15.6109 21.6392 17.8496 20.4684 19.4739 18.6385C21.0982 16.8086 21.9953 14.4467 21.9953 12C21.9953 9.55319 21.0982 7.19135 19.4739 5.36149C17.8496 3.53164 15.6109 2.36079 13.1813 2.07058V2.3647C15.5344 2.65204 17.701 3.79064 19.2723 5.56566C20.8436 7.34068 21.711 9.62936 21.7107 12ZM12.299 21.7059C12.299 21.7838 12.268 21.8586 12.2129 21.9138C12.1577 21.969 12.0829 22 12.0049 22C11.9268 22 11.852 21.969 11.7968 21.9138C11.7418 21.8586 11.7108 21.7838 11.7108 21.7059C11.7108 21.6279 11.7418 21.5531 11.7968 21.4979C11.852 21.4427 11.9268 21.4117 12.0049 21.4117C12.0829 21.4117 12.1577 21.4427 12.2129 21.4979C12.268 21.5531 12.299 21.6279 12.299 21.7059ZM9.5755 8.47058H6.8931C6.87374 8.47089 6.85475 8.476 6.83782 8.48541C6.82089 8.49484 6.80656 8.50829 6.79608 8.52458C6.7856 8.54089 6.77932 8.55952 6.77777 8.57883C6.77623 8.59814 6.77947 8.61753 6.78722 8.63528L7.53429 10.2353H10.4343L9.68132 8.54116C9.67227 8.52048 9.65758 8.50283 9.63878 8.49031C9.61997 8.47781 9.59801 8.47095 9.5755 8.47058ZM8.08135 11.4118L7.81076 10.8235H10.6932L10.9578 11.4118H8.08135ZM8.35782 12H11.2226L11.8989 13.5236C11.9401 13.6176 12.0755 13.6176 12.1107 13.5236L14.3284 8.54116C14.3374 8.52048 14.3522 8.50283 14.3709 8.49031C14.3897 8.47781 14.4117 8.47095 14.4343 8.47058H17.1167C17.136 8.47089 17.155 8.476 17.1719 8.48541C17.1889 8.49484 17.2032 8.50829 17.2136 8.52458C17.2242 8.54089 17.2305 8.55952 17.232 8.57883C17.2335 8.59814 17.2302 8.61753 17.2225 8.63528L13.2107 17.2235C13.2018 17.2443 13.1869 17.2618 13.1681 17.2743C13.1493 17.2868 13.1274 17.2937 13.1049 17.2941H10.9048C10.8823 17.2937 10.8603 17.2868 10.8415 17.2743C10.8227 17.2618 10.808 17.2443 10.799 17.2235L8.35782 12Z" fill="white"/>
</svg>

<svg xmlns="http://www.w3.org/2000/svg" width="24" height="24" fill="none" viewBox="0 0 24 24">
    <path fill="#fff" d="M12.005 2.588a.294.294 0 1 0 0-.588.294.294 0 0 0 0 .588M2.005 12a10 10 0 0 1 8.823-9.93v.295a9.706 9.706 0 0 0 0 19.27v.294A10 10 0 0 1 2.005 12m19.706 0a9.705 9.705 0 0 1-8.53 9.635v.294a10 10 0 0 0 0-19.858v.294A9.706 9.706 0 0 1 21.711 12m-9.412 9.706a.294.294 0 1 1-.589 0 .294.294 0 0 1 .589 0M9.576 8.47H6.893a.118.118 0 0 0-.106.164l.747 1.6h2.9L9.681 8.54a.12.12 0 0 0-.105-.07M8.08 11.41l-.27-.588h2.882l.265.589zm.277.589h2.865l.676 1.524c.041.094.177.094.212 0l2.217-4.983a.12.12 0 0 1 .106-.07h2.683a.117.117 0 0 1 .105.164l-4.011 8.589a.12.12 0 0 1-.106.07h-2.2a.12.12 0 0 1-.106-.07z"/>
</svg>
